; generated by PrusaSlicer 2.3.0+linux-x64-GTK3 on 2022-07-25 at 19:59:44 UTC


;
;

;
;
; 

; external perimeters extrusion width = 0.65mm
; perimeters extrusion width = 0.65mm
; infill extrusion width = 0.65mm
; solid infill extrusion width = 0.65mm
; top infill extrusion width = 0.60mm
; first layer extrusion width = 0.65mm

M73 P0 R290
M201 X1250 Y1250 Z400 E5000 ; sets maximum accelerations, mm/sec^2
M203 X180 Y180 Z12 E80 ; sets maximum feedrates, mm/sec
M204 P1250 R1250 T1250 ; sets acceleration (P, T) and retract acceleration (R), mm/sec^2
M205 X8.00 Y8.00 Z2.00 E10.00 ; sets the jerk limits, mm/sec
M205 S0 T0 ; sets the minimum extruding and travel feed rate, mm/sec
M107
;TYPE:Custom
G90 ; use absolute coordinates
M83 ; extruder relative mode
M104 S170 ; set extruder temp for bed leveling
M140 S85 ; set bed temp
M109 R170 ; wait for bed leveling temp
M190 S85 ; wait for bed temp
G28 ; home all without mesh bed level
G29 ; mesh bed leveling 
M104 S230 ; set extruder temp
G92 E0.0
G1 Y-2.0 X179 F2400
G1 Z3 F720
M109 S230 ; wait for extruder temp

; intro line
G1 X170 F1000
G1 Z0.2 F720
G1 X110.0 E8.0 F900
G1 X40.0 E10.0 F700
G92 E0.0

M221 S95 ; set flow
G21 ; set units to millimeters
G90 ; use absolute coordinates
M83 ; use relative distances for extrusion
M900 K0.12 ; Filament gcode
;LAYER_CHANGE
;Z:0.2
;HEIGHT:0.2
;BEFORE_LAYER_CHANGE
G92 E0.0
;0.2


M73 P0 R289
G1 Z0.200 F9000.000
;AFTER_LAYER_CHANGE
;0.2
G1 E-3.50000 F2400.000
G1 Z0.400 F9000.000
G1 X4.416 Y8.362
G1 Z0.200
G1 E3.50000 F1500.000
M204 S1000
;TYPE:Skirt
;WIDTH:0.65
G1 F1200.000
G1 X4.930 Y7.566 E0.04786
G1 X5.327 Y7.221 E0.02653
G1 X5.786 Y6.964 E0.02653
G1 X6.290 Y6.803 E0.02673
G1 X6.813 Y6.747 E0.02653
G1 X166.831 Y6.747 E8.07755
G1 X167.782 Y6.928 E0.04885
G1 X168.601 Y7.443 E0.04885
G1 X169.175 Y8.222 E0.04885
G1 X169.427 Y9.156 E0.04885
G1 X171.288 Y42.556 E1.68862
G1 X172.134 Y76.463 E1.71211
G1 X172.051 Y140.406 E3.22776
G1 X171.606 Y174.086 E1.70030
G1 X171.407 Y175.001 E0.04726
G1 X170.895 Y175.790 E0.04746
G1 X170.495 Y176.136 E0.02673
G1 X170.032 Y176.394 E0.02673
G1 X169.531 Y176.552 E0.02653
G1 X169.004 Y176.607 E0.02673
G1 X8.988 Y176.607 E8.07742
G1 X8.034 Y176.422 E0.04905
G1 X7.212 Y175.897 E0.04924
G1 X6.874 Y175.510 E0.02593
G1 X6.618 Y175.060 E0.02613
G1 X6.456 Y174.572 E0.02593
G1 X6.394 Y174.058 E0.02613
G1 X4.220 Y39.388 E6.79889
G1 X4.221 Y9.294 E1.51911
G1 X4.398 Y8.450 E0.04351
M204 S1250
; printing object snor.stl id:4 copy 0
G1 E-2.45000 F2400.000
;WIPE_START
G1 F7200.000
G1 X4.930 Y7.566 E-0.32699
G1 X5.327 Y7.221 E-0.16646
G1 X5.786 Y6.964 E-0.16646
G1 X6.290 Y6.803 E-0.16771
G1 X6.813 Y6.747 E-0.16646
G1 X6.823 Y6.747 E-0.00342
;WIPE_END
G1 E-0.05250 F2400.000
G1 Z0.400 F9000.000
G1 X7.959 Y10.486
G1 Z0.200
G1 E3.50000 F1500.000
M204 S1000
;TYPE:Perimeter
G1 F1200.000
G1 X165.695 Y10.486 E7.96233
G1 X165.695 Y38.222 E1.40007
G1 X7.959 Y38.222 E7.96233
G1 X7.959 Y10.576 E1.39553
M204 S1250
G1 X7.352 Y9.879 F9000.000
M204 S1000
;TYPE:External perimeter
G1 F1200.000
G1 X166.302 Y9.879 E8.02362
M73 P0 R288
G1 X166.302 Y38.829 E1.46136
G1 X7.352 Y38.829 E8.02362
G1 X7.352 Y9.969 E1.45682
M204 S1250
G1 X7.951 Y9.915 F9000.000
G1 E-2.45000 F2400.000
;WIPE_START
G1 F7200.000
G1 X10.502 Y9.967 E-0.99750
;WIPE_END
G1 E-0.05250 F2400.000
G1 Z0.400 F9000.000
G1 X165.513 Y11.897
G1 Z0.200
G1 E3.50000 F1500.000
M204 S1000
;TYPE:Solid infill
;WIDTH:0.650915
G1 F1200.000
G1 X164.557 Y10.941 E0.06834
G1 X163.697 Y10.941 E0.04347
G1 X165.240 Y12.484 E0.11029
G1 X165.240 Y13.344 E0.04347
G1 X162.837 Y10.941 E0.17176
G1 X161.977 Y10.941 E0.04347
G1 X165.240 Y14.204 E0.23324
G1 X165.240 Y15.063 E0.04347
G1 X161.118 Y10.941 E0.29471
G1 X160.258 Y10.941 E0.04347
G1 X165.240 Y15.923 E0.35618
G1 X165.240 Y16.783 E0.04347
G1 X159.398 Y10.941 E0.41766
G1 X158.538 Y10.941 E0.04347
G1 X165.240 Y17.643 E0.47913
G1 X165.240 Y18.503 E0.04347
G1 X157.678 Y10.941 E0.54061
G1 X156.818 Y10.941 E0.04347
G1 X165.240 Y19.363 E0.60208
G1 X165.240 Y20.222 E0.04347
G1 X155.959 Y10.941 E0.66356
G1 X155.099 Y10.941 E0.04347
G1 X165.240 Y21.082 E0.72503
G1 X165.240 Y21.942 E0.04347
G1 X154.239 Y10.941 E0.78651
G1 X153.379 Y10.941 E0.04347
G1 X165.240 Y22.802 E0.84798
G1 X165.240 Y23.662 E0.04347
G1 X152.519 Y10.941 E0.90945
G1 X151.659 Y10.941 E0.04347
G1 X165.240 Y24.522 E0.97093
G1 X165.240 Y25.381 E0.04347
G1 X150.800 Y10.941 E1.03240
G1 X149.940 Y10.941 E0.04347
G1 X165.240 Y26.241 E1.09388
G1 X165.240 Y27.101 E0.04347
G1 X149.080 Y10.941 E1.15535
G1 X148.220 Y10.941 E0.04347
G1 X165.240 Y27.961 E1.21683
G1 X165.240 Y28.821 E0.04347
G1 X147.360 Y10.941 E1.27830
G1 X146.500 Y10.941 E0.04347
G1 X165.240 Y29.681 E1.33977
G1 X165.240 Y30.540 E0.04347
G1 X145.641 Y10.941 E1.40125
G1 X144.781 Y10.941 E0.04347
G1 X165.240 Y31.400 E1.46272
G1 X165.240 Y32.260 E0.04347
G1 X143.921 Y10.941 E1.52420
G1 X143.061 Y10.941 E0.04347
G1 X165.240 Y33.120 E1.58567
G1 X165.240 Y33.980 E0.04347
G1 X142.201 Y10.941 E1.64715
G1 X141.341 Y10.941 E0.04347
G1 X165.240 Y34.840 E1.70862
G1 X165.240 Y35.699 E0.04347
G1 X140.482 Y10.941 E1.77010
G1 X139.622 Y10.941 E0.04347
G1 X165.240 Y36.559 E1.83157
G1 X165.240 Y37.419 E0.04347
G1 X138.762 Y10.941 E1.89304
G1 X137.902 Y10.941 E0.04347
G1 X164.727 Y37.767 E1.91789
G1 X163.868 Y37.767 E0.04347
G1 X137.042 Y10.941 E1.91789
G1 X136.182 Y10.941 E0.04347
G1 X163.008 Y37.767 E1.91789
G1 X162.148 Y37.767 E0.04347
G1 X135.323 Y10.941 E1.91789
G1 X134.463 Y10.941 E0.04347
G1 X161.288 Y37.767 E1.91789
G1 X160.428 Y37.767 E0.04347
G1 X133.603 Y10.941 E1.91789
M73 P0 R287
G1 X132.743 Y10.941 E0.04347
G1 X159.568 Y37.767 E1.91789
G1 X158.709 Y37.767 E0.04347
G1 X131.883 Y10.941 E1.91789
G1 X131.023 Y10.941 E0.04347
G1 X157.849 Y37.767 E1.91789
G1 X156.989 Y37.767 E0.04347
G1 X130.164 Y10.941 E1.91789
G1 X129.304 Y10.941 E0.04347
G1 X156.129 Y37.767 E1.91789
G1 X155.269 Y37.767 E0.04347
G1 X128.444 Y10.941 E1.91789
G1 X127.584 Y10.941 E0.04347
G1 X154.409 Y37.767 E1.91789
G1 X153.550 Y37.767 E0.04347
G1 X126.724 Y10.941 E1.91789
G1 X125.864 Y10.941 E0.04347
G1 X152.690 Y37.767 E1.91789
G1 X151.830 Y37.767 E0.04347
G1 X125.005 Y10.941 E1.91789
G1 X124.145 Y10.941 E0.04347
G1 X150.970 Y37.767 E1.91789
G1 X150.110 Y37.767 E0.04347
G1 X123.285 Y10.941 E1.91789
G1 X122.425 Y10.941 E0.04347
G1 X149.250 Y37.767 E1.91789
G1 X148.390 Y37.767 E0.04347
G1 X121.565 Y10.941 E1.91789
G1 X120.705 Y10.941 E0.04347
G1 X147.531 Y37.767 E1.91789
G1 X146.671 Y37.767 E0.04347
G1 X119.846 Y10.941 E1.91789
G1 X118.986 Y10.941 E0.04347
G1 X145.811 Y37.767 E1.91789
G1 X144.951 Y37.767 E0.04347
G1 X118.126 Y10.941 E1.91789
G1 X117.266 Y10.941 E0.04347
G1 X144.091 Y37.767 E1.91789
G1 X143.231 Y37.767 E0.04347
G1 X116.406 Y10.941 E1.91789
G1 X115.546 Y10.941 E0.04347
G1 X142.372 Y37.767 E1.91789
G1 X141.512 Y37.767 E0.04347
G1 X114.687 Y10.941 E1.91789
M73 P1 R287
G1 X113.827 Y10.941 E0.04347
G1 X140.652 Y37.767 E1.91789
G1 X139.792 Y37.767 E0.04347
G1 X112.967 Y10.941 E1.91789
G1 X112.107 Y10.941 E0.04347
G1 X138.932 Y37.767 E1.91789
G1 X138.072 Y37.767 E0.04347
G1 X111.247 Y10.941 E1.91789
G1 X110.387 Y10.941 E0.04347
G1 X137.213 Y37.767 E1.91789
G1 X136.353 Y37.767 E0.04347
G1 X109.528 Y10.941 E1.91789
G1 X108.668 Y10.941 E0.04347
G1 X135.493 Y37.767 E1.91789
G1 X134.633 Y37.767 E0.04347
G1 X107.808 Y10.941 E1.91789
M73 P1 R286
G1 X106.948 Y10.941 E0.04347
G1 X133.773 Y37.767 E1.91789
G1 X132.913 Y37.767 E0.04347
G1 X106.088 Y10.941 E1.91789
G1 X105.228 Y10.941 E0.04347
G1 X132.054 Y37.767 E1.91789
G1 X131.194 Y37.767 E0.04347
G1 X104.369 Y10.941 E1.91789
G1 X103.509 Y10.941 E0.04347
G1 X130.334 Y37.767 E1.91789
G1 X129.474 Y37.767 E0.04347
G1 X102.649 Y10.941 E1.91789
G1 X101.789 Y10.941 E0.04347
G1 X128.614 Y37.767 E1.91789
G1 X127.754 Y37.767 E0.04347
G1 X100.929 Y10.941 E1.91789
G1 X100.069 Y10.941 E0.04347
G1 X126.895 Y37.767 E1.91789
G1 X126.035 Y37.767 E0.04347
G1 X99.210 Y10.941 E1.91789
G1 X98.350 Y10.941 E0.04347
G1 X125.175 Y37.767 E1.91789
G1 X124.315 Y37.767 E0.04347
G1 X97.490 Y10.941 E1.91789
G1 X96.630 Y10.941 E0.04347
G1 X123.455 Y37.767 E1.91789
G1 X122.595 Y37.767 E0.04347
G1 X95.770 Y10.941 E1.91789
G1 X94.910 Y10.941 E0.04347
G1 X121.736 Y37.767 E1.91789
G1 X120.876 Y37.767 E0.04347
G1 X94.051 Y10.941 E1.91789
G1 X93.191 Y10.941 E0.04347
G1 X120.016 Y37.767 E1.91789
G1 X119.156 Y37.767 E0.04347
G1 X92.331 Y10.941 E1.91789
G1 X91.471 Y10.941 E0.04347
G1 X118.296 Y37.767 E1.91789
G1 X117.436 Y37.767 E0.04347
G1 X90.611 Y10.941 E1.91789
G1 X89.751 Y10.941 E0.04347
G1 X116.577 Y37.767 E1.91789
G1 X115.717 Y37.767 E0.04347
G1 X88.892 Y10.941 E1.91789
G1 X88.032 Y10.941 E0.04347
G1 X114.857 Y37.767 E1.91789
G1 X113.997 Y37.767 E0.04347
G1 X87.172 Y10.941 E1.91789
G1 X86.312 Y10.941 E0.04347
G1 X113.137 Y37.767 E1.91789
G1 X112.277 Y37.767 E0.04347
G1 X85.452 Y10.941 E1.91789
G1 X84.592 Y10.941 E0.04347
G1 X111.418 Y37.767 E1.91789
G1 X110.558 Y37.767 E0.04347
G1 X83.733 Y10.941 E1.91789
G1 X82.873 Y10.941 E0.04347
G1 X109.698 Y37.767 E1.91789
G1 X108.838 Y37.767 E0.04347
G1 X82.013 Y10.941 E1.91789
G1 X81.153 Y10.941 E0.04347
G1 X107.978 Y37.767 E1.91789
M73 P1 R285
G1 X107.118 Y37.767 E0.04347
G1 X80.293 Y10.941 E1.91789
G1 X79.433 Y10.941 E0.04347
G1 X106.259 Y37.767 E1.91789
G1 X105.399 Y37.767 E0.04347
G1 X78.574 Y10.941 E1.91789
G1 X77.714 Y10.941 E0.04347
G1 X104.539 Y37.767 E1.91789
G1 X103.679 Y37.767 E0.04347
G1 X76.854 Y10.941 E1.91789
G1 X75.994 Y10.941 E0.04347
G1 X102.819 Y37.767 E1.91789
G1 X101.959 Y37.767 E0.04347
G1 X75.134 Y10.941 E1.91789
G1 X74.274 Y10.941 E0.04347
G1 X101.100 Y37.767 E1.91789
G1 X100.240 Y37.767 E0.04347
G1 X73.415 Y10.941 E1.91789
G1 X72.555 Y10.941 E0.04347
G1 X99.380 Y37.767 E1.91789
G1 X98.520 Y37.767 E0.04347
G1 X71.695 Y10.941 E1.91789
G1 X70.835 Y10.941 E0.04347
G1 X97.660 Y37.767 E1.91789
G1 X96.800 Y37.767 E0.04347
G1 X69.975 Y10.941 E1.91789
G1 X69.115 Y10.941 E0.04347
G1 X95.941 Y37.767 E1.91789
G1 X95.081 Y37.767 E0.04347
G1 X68.255 Y10.941 E1.91789
G1 X67.396 Y10.941 E0.04347
G1 X94.221 Y37.767 E1.91789
G1 X93.361 Y37.767 E0.04347
G1 X66.536 Y10.941 E1.91789
G1 X65.676 Y10.941 E0.04347
G1 X92.501 Y37.767 E1.91789
G1 X91.641 Y37.767 E0.04347
G1 X64.816 Y10.941 E1.91789
G1 X63.956 Y10.941 E0.04347
G1 X90.782 Y37.767 E1.91789
G1 X89.922 Y37.767 E0.04347
G1 X63.096 Y10.941 E1.91789
G1 X62.237 Y10.941 E0.04347
G1 X89.062 Y37.767 E1.91789
G1 X88.202 Y37.767 E0.04347
G1 X61.377 Y10.941 E1.91789
G1 X60.517 Y10.941 E0.04347
G1 X87.342 Y37.767 E1.91789
G1 X86.482 Y37.767 E0.04347
G1 X59.657 Y10.941 E1.91789
G1 X58.797 Y10.941 E0.04347
G1 X85.623 Y37.767 E1.91789
G1 X84.763 Y37.767 E0.04347
G1 X57.937 Y10.941 E1.91789
G1 X57.078 Y10.941 E0.04347
G1 X83.903 Y37.767 E1.91789
G1 X83.043 Y37.767 E0.04347
G1 X56.218 Y10.941 E1.91789
G1 X55.358 Y10.941 E0.04347
G1 X82.183 Y37.767 E1.91789
G1 X81.323 Y37.767 E0.04347
G1 X54.498 Y10.941 E1.91789
M73 P1 R284
G1 X53.638 Y10.941 E0.04347
G1 X80.464 Y37.767 E1.91789
G1 X79.604 Y37.767 E0.04347
G1 X52.778 Y10.941 E1.91789
G1 X51.919 Y10.941 E0.04347
G1 X78.744 Y37.767 E1.91789
G1 X77.884 Y37.767 E0.04347
G1 X51.059 Y10.941 E1.91789
G1 X50.199 Y10.941 E0.04347
G1 X77.024 Y37.767 E1.91789
G1 X76.164 Y37.767 E0.04347
G1 X49.339 Y10.941 E1.91789
G1 X48.479 Y10.941 E0.04347
G1 X75.305 Y37.767 E1.91789
G1 X74.445 Y37.767 E0.04347
G1 X47.619 Y10.941 E1.91789
G1 X46.760 Y10.941 E0.04347
G1 X73.585 Y37.767 E1.91789
G1 X72.725 Y37.767 E0.04347
G1 X45.900 Y10.941 E1.91789
G1 X45.040 Y10.941 E0.04347
G1 X71.865 Y37.767 E1.91789
G1 X71.005 Y37.767 E0.04347
G1 X44.180 Y10.941 E1.91789
G1 X43.320 Y10.941 E0.04347
G1 X70.146 Y37.767 E1.91789
G1 X69.286 Y37.767 E0.04347
G1 X42.460 Y10.941 E1.91789
G1 X41.601 Y10.941 E0.04347
G1 X68.426 Y37.767 E1.91789
G1 X67.566 Y37.767 E0.04347
G1 X40.741 Y10.941 E1.91789
G1 X39.881 Y10.941 E0.04347
G1 X66.706 Y37.767 E1.91789
G1 X65.846 Y37.767 E0.04347
G1 X39.021 Y10.941 E1.91789
G1 X38.161 Y10.941 E0.04347
G1 X64.987 Y37.767 E1.91789
M73 P2 R284
G1 X64.127 Y37.767 E0.04347
G1 X37.301 Y10.941 E1.91789
G1 X36.442 Y10.941 E0.04347
G1 X63.267 Y37.767 E1.91789
G1 X62.407 Y37.767 E0.04347
G1 X35.582 Y10.941 E1.91789
G1 X34.722 Y10.941 E0.04347
G1 X61.547 Y37.767 E1.91789
G1 X60.687 Y37.767 E0.04347
G1 X33.862 Y10.941 E1.91789
G1 X33.002 Y10.941 E0.04347
G1 X59.828 Y37.767 E1.91789
G1 X58.968 Y37.767 E0.04347
G1 X32.142 Y10.941 E1.91789
G1 X31.283 Y10.941 E0.04347
G1 X58.108 Y37.767 E1.91789
G1 X57.248 Y37.767 E0.04347
G1 X30.423 Y10.941 E1.91789
G1 X29.563 Y10.941 E0.04347
G1 X56.388 Y37.767 E1.91789
G1 X55.528 Y37.767 E0.04347
G1 X28.703 Y10.941 E1.91789
G1 X27.843 Y10.941 E0.04347
G1 X54.669 Y37.767 E1.91789
M73 P2 R283
G1 X53.809 Y37.767 E0.04347
G1 X26.983 Y10.941 E1.91789
G1 X26.124 Y10.941 E0.04347
G1 X52.949 Y37.767 E1.91789
G1 X52.089 Y37.767 E0.04347
G1 X25.264 Y10.941 E1.91789
G1 X24.404 Y10.941 E0.04347
G1 X51.229 Y37.767 E1.91789
G1 X50.369 Y37.767 E0.04347
G1 X23.544 Y10.941 E1.91789
G1 X22.684 Y10.941 E0.04347
G1 X49.509 Y37.767 E1.91789
G1 X48.650 Y37.767 E0.04347
G1 X21.824 Y10.941 E1.91789
G1 X20.965 Y10.941 E0.04347
G1 X47.790 Y37.767 E1.91789
G1 X46.930 Y37.767 E0.04347
G1 X20.105 Y10.941 E1.91789
G1 X19.245 Y10.941 E0.04347
G1 X46.070 Y37.767 E1.91789
G1 X45.210 Y37.767 E0.04347
G1 X18.385 Y10.941 E1.91789
G1 X17.525 Y10.941 E0.04347
G1 X44.350 Y37.767 E1.91789
G1 X43.491 Y37.767 E0.04347
G1 X16.665 Y10.941 E1.91789
G1 X15.806 Y10.941 E0.04347
G1 X42.631 Y37.767 E1.91789
G1 X41.771 Y37.767 E0.04347
G1 X14.946 Y10.941 E1.91789
G1 X14.086 Y10.941 E0.04347
G1 X40.911 Y37.767 E1.91789
G1 X40.051 Y37.767 E0.04347
G1 X13.226 Y10.941 E1.91789
G1 X12.366 Y10.941 E0.04347
G1 X39.191 Y37.767 E1.91789
G1 X38.332 Y37.767 E0.04347
G1 X11.506 Y10.941 E1.91789
G1 X10.647 Y10.941 E0.04347
G1 X37.472 Y37.767 E1.91789
G1 X36.612 Y37.767 E0.04347
G1 X9.787 Y10.941 E1.91789
G1 X8.927 Y10.941 E0.04347
G1 X35.752 Y37.767 E1.91789
G1 X34.892 Y37.767 E0.04347
G1 X8.414 Y11.289 E1.89305
G1 X8.414 Y12.149 E0.04347
G1 X34.032 Y37.767 E1.83157
G1 X33.173 Y37.767 E0.04347
G1 X8.414 Y13.008 E1.77010
G1 X8.414 Y13.868 E0.04347
G1 X32.313 Y37.767 E1.70862
G1 X31.453 Y37.767 E0.04347
G1 X8.414 Y14.728 E1.64715
G1 X8.414 Y15.588 E0.04347
G1 X30.593 Y37.767 E1.58567
G1 X29.733 Y37.767 E0.04347
G1 X8.414 Y16.448 E1.52420
G1 X8.414 Y17.308 E0.04347
G1 X28.873 Y37.767 E1.46273
G1 X28.014 Y37.767 E0.04347
G1 X8.414 Y18.167 E1.40125
G1 X8.414 Y19.027 E0.04347
G1 X27.154 Y37.767 E1.33978
M73 P2 R282
G1 X26.294 Y37.767 E0.04347
G1 X8.414 Y19.887 E1.27830
G1 X8.414 Y20.747 E0.04347
G1 X25.434 Y37.767 E1.21683
G1 X24.574 Y37.767 E0.04347
G1 X8.414 Y21.607 E1.15535
G1 X8.414 Y22.467 E0.04347
G1 X23.714 Y37.767 E1.09388
G1 X22.855 Y37.767 E0.04347
G1 X8.414 Y23.326 E1.03241
G1 X8.414 Y24.186 E0.04347
G1 X21.995 Y37.767 E0.97093
G1 X21.135 Y37.767 E0.04347
G1 X8.414 Y25.046 E0.90946
G1 X8.414 Y25.906 E0.04347
G1 X20.275 Y37.767 E0.84798
G1 X19.415 Y37.767 E0.04347
G1 X8.414 Y26.766 E0.78651
G1 X8.414 Y27.626 E0.04347
G1 X18.555 Y37.767 E0.72503
G1 X17.696 Y37.767 E0.04347
G1 X8.414 Y28.485 E0.66356
G1 X8.414 Y29.345 E0.04347
G1 X16.836 Y37.767 E0.60208
G1 X15.976 Y37.767 E0.04347
G1 X8.414 Y30.205 E0.54061
G1 X8.414 Y31.065 E0.04347
G1 X15.116 Y37.767 E0.47914
G1 X14.256 Y37.767 E0.04347
G1 X8.414 Y31.925 E0.41766
G1 X8.414 Y32.785 E0.04347
G1 X13.396 Y37.767 E0.35619
G1 X12.537 Y37.767 E0.04347
G1 X8.414 Y33.644 E0.29471
G1 X8.414 Y34.504 E0.04347
G1 X11.677 Y37.767 E0.23324
G1 X10.817 Y37.767 E0.04347
G1 X8.414 Y35.364 E0.17176
G1 X8.414 Y36.224 E0.04347
G1 X9.957 Y37.767 E0.11029
G1 X9.097 Y37.767 E0.04347
G1 X8.141 Y36.811 E0.06835
M204 S1250
; stop printing object snor.stl id:4 copy 0
; printing object snor.stl id:3 copy 0
G1 E-2.45000 F2400.000
;WIPE_START
G1 F7200.000
G1 X9.097 Y37.767 E-0.42811
G1 X9.957 Y37.767 E-0.27228
G1 X9.294 Y37.103 E-0.29711
;WIPE_END
G1 E-0.05250 F2400.000
G1 Z0.400 F9000.000
G1 X9.815 Y43.794
G1 Z0.200
G1 E3.50000 F1500.000
M204 S1000
;TYPE:Perimeter
;WIDTH:0.65
G1 F1200.000
G1 X167.551 Y43.794 E7.96233
